build/Karasa-Jaga/scalable/actions/tab-new-symbolic.svg

<svg height="16" width="16" xmlns="http://www.w3.org/2000/svg"><path d="m1.84375 1c-.475921 0-.844509.367828-.84375.84375v3.9375c-.11744295.09823-.687065.32604-.96875.375l-.03125 6.84375h8c-.010642-.125864.027344-.371383.027344-.5 0-2.469972 2.0026842-4.4726562 4.4726562-4.4726562 1.144718 0 2.708949.4430092 3.5 1.1503906v-1.4277344-.15625-.75c-.0000002-.1189805-.0205802-.2423396-.0625002-.34375-.08384-.2028208-.234679-.3536597-.4375-.4375-.10141-.04192-.224779-.0609877-.34375-.0625h-5.15625v-4.15625c-.000008-.475919-.367827-.84375-.84375-.84375zm.15625 1h7v4c.0000552.5522619.4477381.9999448 1 1h5v.4042969c-.609627-.2404238-1.804222-.3769531-2.5-.3769531-2.8334246-.0000001-5.1047015 2.2061834-5.3710938 4.9726562h-6.125l.0234376-5.1191406c.0838083-.0344174.1677769-.0675998.2460937-.1054688.1056977-.0511086.1785851-.0688143.3671875-.2265625.2276441-.1899429.3592794-.4710985.359375-.7675781z" fill="#bebebe"/><path d="m12.5 9.0000003c-1.933 0-3.5 1.5669997-3.5 3.4999997s1.567 3.5 3.5 3.5 3.5-1.567 3.5-3.5-1.567-3.4999997-3.5-3.4999997zm-.5.9999997h1v2h2v1h-2v2h-1v-2h-2v-1h2z" fill="#bebebe" fill-rule="evenodd"/><text x="-.707107" y="11.448"><tspan x="-.707107" y="46.838623"/></text></svg>

<?xml version="1.0" encoding="UTF-8" standalone="no"?>
<svg
   xmlns:dc="http://purl.org/dc/elements/1.1/"
   xmlns:cc="http://creativecommons.org/ns#"
   xmlns:rdf="http://www.w3.org/1999/02/22-rdf-syntax-ns#"
   xmlns:svg="http://www.w3.org/2000/svg"
   xmlns="http://www.w3.org/2000/svg"
   xmlns:sodipodi="http://sodipodi.sourceforge.net/DTD/sodipodi-0.dtd"
   xmlns:inkscape="http://www.inkscape.org/namespaces/inkscape"
   height="16"
   width="16"
   version="1.1"
   id="svg10"
   sodipodi:docname="tab-new-symbolic.svg"
   inkscape:version="0.92.4 (unknown)">
  <metadata
     id="metadata16">
    <rdf:RDF>
      <cc:Work
         rdf:about="">
        <dc:format>image/svg+xml</dc:format>
        <dc:type
           rdf:resource="http://purl.org/dc/dcmitype/StillImage" />
        <dc:title></dc:title>
      </cc:Work>
    </rdf:RDF>
  </metadata>
  <defs
     id="defs14" />
  <sodipodi:namedview
     pagecolor="#ffffff"
     bordercolor="#666666"
     borderopacity="1"
     objecttolerance="10"
     gridtolerance="10"
     guidetolerance="10"
     inkscape:pageopacity="0"
     inkscape:pageshadow="2"
     inkscape:window-width="1366"
     inkscape:window-height="706"
     id="namedview12"
     showgrid="true"
     inkscape:zoom="41.7193"
     inkscape:cx="12.280464"
     inkscape:cy="6.7242805"
     inkscape:window-x="0"
     inkscape:window-y="0"
     inkscape:window-maximized="1"
     inkscape:current-layer="svg10">
    <inkscape:grid
       type="xygrid"
       id="grid823" />
  </sodipodi:namedview>
  <path
     d="M 1.84375,1 C 1.367829,1 0.999241,1.367828 1,1.84375 v 3.9375 C 0.88255705,5.87948 0.312935,6.10729 0.03125,6.15625 L 0,13 h 8 c -0.010642,-0.125864 0.027344,-0.371383 0.027344,-0.5 0,-2.469972 2.0026842,-4.4726562 4.4726562,-4.4726562 1.144718,0 2.708949,0.4430092 3.5,1.1503906 V 7.75 7.59375 6.84375 C 16,6.7247695 15.97942,6.6014104 15.9375,6.5 15.85366,6.2971792 15.702821,6.1463403 15.5,6.0625 15.39859,6.02058 15.275221,6.0015123 15.15625,6 H 10 V 1.84375 C 9.999992,1.367831 9.632173,1 9.15625,1 Z M 2,2 h 7 v 4 c 5.52e-5,0.5522619 0.4477381,0.9999448 1,1 h 5 V 7.4042969 C 14.390373,7.1638731 13.195778,7.0273438 12.5,7.0273438 9.6665754,7.0273437 7.3952985,9.2335272 7.1289062,12 h -6.125 L 1.0273438,6.8808594 C 1.1111521,6.846442 1.1951207,6.8132596 1.2734375,6.7753906 1.3791352,6.724282 1.4520226,6.7065763 1.640625,6.5488281 1.8682691,6.3588852 1.9999044,6.0777296 2,5.78125 Z"
     id="path2"
     style="fill:#bebebe;fill-opacity:1"
     inkscape:connector-curvature="0"
     sodipodi:nodetypes="scccccsscccssscccssccccccscccsccc" />
  <path
     d="m12.5 9.0000003c-1.933 0-3.5 1.5669997-3.5 3.4999997s1.567 3.5 3.5 3.5 3.5-1.567 3.5-3.5-1.567-3.4999997-3.5-3.4999997zm-.5.9999997h1v2h2v1h-2v2h-1v-2h-2v-1h2z"
     fill="#bebebe"
     fill-rule="evenodd"
     id="path4" />
  <text
     x="-.707107"
     y="11.448"
     id="text8">
    <tspan
       x="-.707107"
       y="46.838623"
       id="tspan6" />
  </text>
</svg>
